source/img/icons/ruby.svg

<?xml version="1.0" encoding="UTF-8" standalone="no"?>
<svg width="41px" height="40px" viewBox="0 0 41 40" version="1.1" xmlns="http://www.w3.org/2000/svg" xmlns:xlink="http://www.w3.org/1999/xlink" xmlns:sketch="http://www.bohemiancoding.com/sketch/ns">
    <!-- Generator: Sketch 3.2.2 (9983) - http://www.bohemiancoding.com/sketch -->
    <title>ruby</title>
    <desc>Created with Sketch.</desc>
    <defs>
        <linearGradient x1="84.748336%" y1="111.396879%" x2="58.2507132%" y2="64.5783163%" id="linearGradient-1">
            <stop stop-color="#F68F71" offset="0%"></stop>
            <stop stop-color="#F68F71" offset="0%"></stop>
            <stop stop-color="#DC5242" offset="41%"></stop>
            <stop stop-color="#A72C32" offset="99%"></stop>
            <stop stop-color="#A72C32" offset="100%"></stop>
        </linearGradient>
        <linearGradient x1="116.648251%" y1="60.8891702%" x2="1.74018771%" y2="19.2856485%" id="linearGradient-2">
            <stop stop-color="#9B3F34" offset="0%"></stop>
            <stop stop-color="#9B3F34" offset="0%"></stop>
            <stop stop-color="#A23E36" offset="99%"></stop>
            <stop stop-color="#A23E36" offset="100%"></stop>
        </linearGradient>
        <linearGradient x1="75.7730036%" y1="219.333528%" x2="38.9748617%" y2="7.81100059%" id="linearGradient-3">
            <stop stop-color="#9B3F34" offset="0%"></stop>
            <stop stop-color="#9B3F34" offset="0%"></stop>
            <stop stop-color="#A23E36" offset="99%"></stop>
            <stop stop-color="#A23E36" offset="100%"></stop>
        </linearGradient>
        <linearGradient x1="50.0118343%" y1="7.23582406%" x2="66.4832347%" y2="79.1395072%" id="linearGradient-4">
            <stop stop-color="#FFFFFF" offset="0%"></stop>
            <stop stop-color="#FFFFFF" offset="0%"></stop>
            <stop stop-color="#E28B6F" offset="23%"></stop>
            <stop stop-color="#DA6144" offset="46%"></stop>
            <stop stop-color="#A60003" offset="99%"></stop>
            <stop stop-color="#A60003" offset="100%"></stop>
        </linearGradient>
        <linearGradient x1="46.1738121%" y1="16.342606%" x2="49.9322096%" y2="83.0453998%" id="linearGradient-5">
            <stop stop-color="#FFFFFF" offset="0%"></stop>
            <stop stop-color="#FFFFFF" offset="0%"></stop>
            <stop stop-color="#E08A6D" offset="23%"></stop>
            <stop stop-color="#C14435" offset="56%"></stop>
            <stop stop-color="#B13430" offset="99%"></stop>
            <stop stop-color="#B13430" offset="100%"></stop>
        </linearGradient>
        <linearGradient x1="36.966994%" y1="15.5982956%" x2="49.5297327%" y2="92.4818904%" id="linearGradient-6">
            <stop stop-color="#FFFFFF" offset="0%"></stop>
            <stop stop-color="#FFFFFF" offset="0%"></stop>
            <stop stop-color="#DF8063" offset="18%"></stop>
            <stop stop-color="#C94D37" offset="40%"></stop>
            <stop stop-color="#B13430" offset="99%"></stop>
            <stop stop-color="#B13430" offset="100%"></stop>
        </linearGradient>
        <linearGradient x1="13.6087984%" y1="58.3483325%" x2="85.7665879%" y2="-46.7183695%" id="linearGradient-7">
            <stop stop-color="#FFFFFF" offset="0%"></stop>
            <stop stop-color="#FFFFFF" offset="0%"></stop>
            <stop stop-color="#C94838" offset="54%"></stop>
            <stop stop-color="#C12D2F" offset="99%"></stop>
            <stop stop-color="#C12D2F" offset="100%"></stop>
        </linearGradient>
        <linearGradient x1="27.6291578%" y1="21.1352931%" x2="50.7501769%" y2="79.0598548%" id="linearGradient-8">
            <stop stop-color="#FFFFFF" offset="0%"></stop>
            <stop stop-color="#FFFFFF" offset="0%"></stop>
            <stop stop-color="#DA6548" offset="31%"></stop>
            <stop stop-color="#C14433" offset="99%"></stop>
            <stop stop-color="#C14433" offset="100%"></stop>
        </linearGradient>
        <linearGradient x1="-20.6714311%" y1="122.285392%" x2="104.240338%" y2="-6.34129563%" id="linearGradient-9">
            <stop stop-color="#BD0012" offset="0%"></stop>
            <stop stop-color="#BD0012" offset="0%"></stop>
            <stop stop-color="#FFFFFF" offset="7%"></stop>
            <stop stop-color="#FFFFFF" offset="17%"></stop>
            <stop stop-color="#C95841" offset="27%"></stop>
            <stop stop-color="#983734" offset="33%"></stop>
            <stop stop-color="#AE4231" offset="46%"></stop>
            <stop stop-color="#B93E2F" offset="72%"></stop>
            <stop stop-color="#DE4E2B" offset="99%"></stop>
            <stop stop-color="#DE4E2B" offset="100%"></stop>
        </linearGradient>
        <linearGradient x1="58.7940879%" y1="65.2049657%" x2="11.9688196%" y2="50.1284997%" id="linearGradient-10">
            <stop stop-color="#9F3633" offset="0%"></stop>
            <stop stop-color="#9F3633" offset="0%"></stop>
            <stop stop-color="#A73532" offset="54%"></stop>
            <stop stop-color="#B13439" offset="99%"></stop>
            <stop stop-color="#B13439" offset="100%"></stop>
        </linearGradient>
        <linearGradient x1="79.3180077%" y1="62.7525886%" x2="23.0867542%" y2="17.8857352%" id="linearGradient-11">
            <stop stop-color="#923C36" offset="0%"></stop>
            <stop stop-color="#923C36" offset="0%"></stop>
            <stop stop-color="#AA3531" offset="99%"></stop>
            <stop stop-color="#AA3531" offset="100%"></stop>
        </linearGradient>
        <linearGradient x1="92.8785633%" y1="74.1223655%" x2="59.8383307%" y2="39.7027367%" id="linearGradient-12">
            <stop stop-color="#8D3E36" offset="0%"></stop>
            <stop stop-color="#8D3E36" offset="0%"></stop>
            <stop stop-color="#AA3E37" offset="99%"></stop>
            <stop stop-color="#AA3E37" offset="100%"></stop>
        </linearGradient>
        <radialGradient cx="31.9975131%" cy="40.215073%" fx="31.9975131%" fy="40.215073%" r="69.5772313%" id="radialGradient-13">
            <stop stop-color="#B13430" offset="0%"></stop>
            <stop stop-color="#B13430" offset="0%"></stop>
            <stop stop-color="#923934" offset="99%"></stop>
            <stop stop-color="#923934" offset="100%"></stop>
        </radialGradient>
        <radialGradient cx="13.5463428%" cy="40.858209%" fx="13.5463428%" fy="40.858209%" r="88.3904146%" id="radialGradient-14">
            <stop stop-color="#AE3531" offset="0%"></stop>
            <stop stop-color="#AE3531" offset="0%"></stop>
            <stop stop-color="#953A36" offset="99%"></stop>
            <stop stop-color="#953A36" offset="100%"></stop>
        </radialGradient>
        <linearGradient x1="56.575641%" y1="101.721969%" x2="3.10737179%" y2="11.9938945%" id="linearGradient-15">
            <stop stop-color="#994939" offset="0%"></stop>
            <stop stop-color="#994939" offset="0%"></stop>
            <stop stop-color="#AA3A36" offset="43%"></stop>
            <stop stop-color="#B83936" offset="99%"></stop>
            <stop stop-color="#B83936" offset="100%"></stop>
        </linearGradient>
        <linearGradient x1="30.8718498%" y1="35.6005521%" x2="92.4760336%" y2="100.699132%" id="linearGradient-16">
            <stop stop-color="#B9392F" offset="0%"></stop>
            <stop stop-color="#B9392F" offset="0%"></stop>
            <stop stop-color="#A23A36" offset="44%"></stop>
            <stop stop-color="#8D463A" offset="99%"></stop>
            <stop stop-color="#8D463A" offset="100%"></stop>
        </linearGradient>
    </defs>
    <g id="Page-1" stroke="none" stroke-width="1" fill="none" fill-rule="evenodd" sketch:type="MSPage">
        <g id="ruby" sketch:type="MSLayerGroup">
            <path d="M8.27277479,39.9514981 L37.7835718,37.9487855 L40.0562678,8.19218273 L31.0642089,26.4180767 L8.27277479,39.9514981 Z" id="Shape" fill="url(#linearGradient-1)" sketch:type="MSShapeGroup"></path>
            <path d="M28.3865378,29.5450486 L37.831927,37.9286375 L35.295292,20.4220276 L28.3865378,29.5450486 Z" id="Shape" fill="url(#linearGradient-2)" sketch:type="MSShapeGroup"></path>
            <path d="M8.37150006,39.9132169 L37.8661786,37.9286375 L19.2836648,36.4699212 L8.37150006,39.9132169 Z" id="Shape" fill="url(#linearGradient-3)" sketch:type="MSShapeGroup"></path>
            <path d="M2.82475165,26.8935699 L8.39769248,39.9172465 L13.039795,24.7095251 L2.82475165,26.8935699 Z" id="Shape" fill="url(#linearGradient-4)" sketch:type="MSShapeGroup"></path>
            <path d="M11.8893434,24.3226832 L28.384523,29.5954186 L24.1131439,12.8645073 L11.8893434,24.3226832 Z" id="Shape" fill="url(#linearGradient-5)" sketch:type="MSShapeGroup"></path>
            <path d="M24.314624,14.065329 L39.0871483,13.1002391 L27.5322619,3.66290905 L24.314624,14.065329 Z" id="Shape" fill="url(#linearGradient-6)" sketch:type="MSShapeGroup"></path>
            <path d="M22.600028,0.247820579 L33.6834508,0.298190616 L26.8875255,4.05378054 L22.600028,0.247820579 Z" id="Shape" fill="url(#linearGradient-7)" sketch:type="MSShapeGroup"></path>
            <path d="M0.681002893,20.6174633 L0.137006499,31.9950472 L2.98392096,26.8029038 L0.681002893,20.6174633 Z" id="Shape" fill="url(#linearGradient-8)" sketch:type="MSShapeGroup"></path>
            <path d="M0.527877982,20.4220276 L2.84489966,26.9943099 L12.9128626,24.7357175 L24.4073049,14.0532402 L27.6511352,3.74954552 L22.5436135,0.143050904 L13.8598192,3.39292566 C11.1237189,5.9376199 5.81471701,10.9726087 5.62331087,11.0673044 C5.43391954,11.1640149 2.11755633,17.4320622 0.527877982,20.4220276 L0.527877982,20.4220276 Z" id="Shape" fill="#FFFFFF" sketch:type="MSShapeGroup"></path>
            <path d="M8.66364627,8.61529104 C14.593207,2.73610038 22.2373637,-0.737417334 25.1709146,2.22232601 C28.1024508,5.18206935 24.9936121,12.3749106 19.0640514,18.2520864 C13.1344907,24.1292623 5.58502964,27.7941861 2.65349352,24.8344428 C-0.280057403,21.8767142 2.73408558,14.4924669 8.66364627,8.61529104 L8.66364627,8.61529104 Z" id="Shape" fill="url(#linearGradient-9)" sketch:type="MSShapeGroup"></path>
            <path d="M8.39769248,39.9112021 L13.0035286,24.6551255 L28.2999013,29.5692262 C22.7692713,34.7553252 16.6180824,39.1395331 8.39769248,39.9112021 L8.39769248,39.9112021 Z" id="Shape" fill="url(#linearGradient-10)" sketch:type="MSShapeGroup"></path>
            <path d="M24.4274529,14.0230182 L28.3543009,29.5772854 C32.9742407,24.7195991 37.1207021,19.4972337 39.151622,13.0377802 L24.4274529,14.0230182 L24.4274529,14.0230182 Z" id="Shape" fill="url(#linearGradient-11)" sketch:type="MSShapeGroup"></path>
            <path d="M39.1113259,13.1163575 C40.6828711,8.37351486 41.0455353,1.56953034 33.6350956,0.306249822 L27.5544248,3.66492385 L39.1113259,13.1163575 L39.1113259,13.1163575 Z" id="Shape" fill="url(#linearGradient-12)" sketch:type="MSShapeGroup"></path>
            <path d="M0.137006499,31.9265439 C0.354605057,39.7540476 6.00209355,39.8709061 8.40776649,39.9394093 L2.85094406,26.9620731 L0.137006499,31.9265439 L0.137006499,31.9265439 Z" id="Shape" fill="#AA3E35" sketch:type="MSShapeGroup"></path>
            <path d="M24.4496157,14.0471958 C27.9996959,16.2292258 35.1542559,20.6114189 35.2993216,20.692011 C35.5249793,20.8189435 38.3839826,15.8705911 39.0327487,13.0740467 L24.4496157,14.0471958 L24.4496157,14.0471958 Z" id="Shape" fill="url(#radialGradient-13)" sketch:type="MSShapeGroup"></path>
            <path d="M12.9974842,24.6551255 L19.1547175,36.5343949 C22.7954637,34.5598894 25.6464078,32.1542165 28.2575905,29.5772854 L12.9974842,24.6551255 L12.9974842,24.6551255 Z" id="Shape" fill="url(#radialGradient-14)" sketch:type="MSShapeGroup"></path>
            <path d="M2.82676645,26.9781915 L1.95435742,37.3665079 C3.60045021,39.6150263 5.86508705,39.810462 8.24053797,39.6351743 C6.52191232,35.3577508 3.08869064,26.8049186 2.82676645,26.9781915 L2.82676645,26.9781915 Z" id="Shape" fill="url(#linearGradient-15)" sketch:type="MSShapeGroup"></path>
            <path d="M27.5181583,3.69111627 L39.750018,5.40772712 C39.0972223,2.64140471 37.0924949,0.85629062 33.6753916,0.298190616 L27.5181583,3.69111627 L27.5181583,3.69111627 Z" id="Shape" fill="url(#linearGradient-16)" sketch:type="MSShapeGroup"></path>
        </g>
    </g>
</svg>

<svg width="88" height="60" viewBox="0 0 88 60" xmlns="http://www.w3.org/2000/svg"><title>ruby</title><defs><filter x="-50%" y="-50%" width="200%" height="200%" filterUnits="objectBoundingBox" id="a"><feGaussianBlur stdDeviation="5.09" in="SourceGraphic" result="blur"/></filter><linearGradient x1="84.748%" y1="111.397%" x2="58.251%" y2="64.578%" id="b"><stop stop-color="#F68F71" offset="0%"/><stop stop-color="#F68F71" offset="0%"/><stop stop-color="#DC5242" offset="41%"/><stop stop-color="#A72C32" offset="99%"/><stop stop-color="#A72C32" offset="100%"/></linearGradient><linearGradient x1="116.648%" y1="60.889%" x2="1.74%" y2="19.286%" id="c"><stop stop-color="#9B3F34" offset="0%"/><stop stop-color="#9B3F34" offset="0%"/><stop stop-color="#A23E36" offset="99%"/><stop stop-color="#A23E36" offset="100%"/></linearGradient><linearGradient x1="75.773%" y1="219.334%" x2="38.975%" y2="7.811%" id="d"><stop stop-color="#9B3F34" offset="0%"/><stop stop-color="#9B3F34" offset="0%"/><stop stop-color="#A23E36" offset="99%"/><stop stop-color="#A23E36" offset="100%"/></linearGradient><linearGradient x1="50.012%" y1="7.236%" x2="66.483%" y2="79.14%" id="e"><stop stop-color="#FFF" offset="0%"/><stop stop-color="#FFF" offset="0%"/><stop stop-color="#E28B6F" offset="23%"/><stop stop-color="#DA6144" offset="46%"/><stop stop-color="#A60003" offset="99%"/><stop stop-color="#A60003" offset="100%"/></linearGradient><linearGradient x1="46.174%" y1="16.343%" x2="49.932%" y2="83.045%" id="f"><stop stop-color="#FFF" offset="0%"/><stop stop-color="#FFF" offset="0%"/><stop stop-color="#E08A6D" offset="23%"/><stop stop-color="#C14435" offset="56%"/><stop stop-color="#B13430" offset="99%"/><stop stop-color="#B13430" offset="100%"/></linearGradient><linearGradient x1="36.967%" y1="15.598%" x2="49.53%" y2="92.482%" id="g"><stop stop-color="#FFF" offset="0%"/><stop stop-color="#FFF" offset="0%"/><stop stop-color="#DF8063" offset="18%"/><stop stop-color="#C94D37" offset="40%"/><stop stop-color="#B13430" offset="99%"/><stop stop-color="#B13430" offset="100%"/></linearGradient><linearGradient x1="13.609%" y1="58.348%" x2="85.767%" y2="-46.718%" id="h"><stop stop-color="#FFF" offset="0%"/><stop stop-color="#FFF" offset="0%"/><stop stop-color="#C94838" offset="54%"/><stop stop-color="#C12D2F" offset="99%"/><stop stop-color="#C12D2F" offset="100%"/></linearGradient><linearGradient x1="27.629%" y1="21.135%" x2="50.75%" y2="79.06%" id="i"><stop stop-color="#FFF" offset="0%"/><stop stop-color="#FFF" offset="0%"/><stop stop-color="#DA6548" offset="31%"/><stop stop-color="#C14433" offset="99%"/><stop stop-color="#C14433" offset="100%"/></linearGradient><linearGradient x1="-20.671%" y1="122.285%" x2="104.24%" y2="-6.341%" id="j"><stop stop-color="#BD0012" offset="0%"/><stop stop-color="#BD0012" offset="0%"/><stop stop-color="#FFF" offset="7%"/><stop stop-color="#FFF" offset="17%"/><stop stop-color="#C95841" offset="27%"/><stop stop-color="#983734" offset="33%"/><stop stop-color="#AE4231" offset="46%"/><stop stop-color="#B93E2F" offset="72%"/><stop stop-color="#DE4E2B" offset="99%"/><stop stop-color="#DE4E2B" offset="100%"/></linearGradient><linearGradient x1="58.794%" y1="65.205%" x2="11.969%" y2="50.128%" id="k"><stop stop-color="#9F3633" offset="0%"/><stop stop-color="#9F3633" offset="0%"/><stop stop-color="#A73532" offset="54%"/><stop stop-color="#B13439" offset="99%"/><stop stop-color="#B13439" offset="100%"/></linearGradient><linearGradient x1="79.318%" y1="62.753%" x2="23.087%" y2="17.886%" id="l"><stop stop-color="#923C36" offset="0%"/><stop stop-color="#923C36" offset="0%"/><stop stop-color="#AA3531" offset="99%"/><stop stop-color="#AA3531" offset="100%"/></linearGradient><linearGradient x1="92.879%" y1="74.122%" x2="59.838%" y2="39.703%" id="m"><stop stop-color="#8D3E36" offset="0%"/><stop stop-color="#8D3E36" offset="0%"/><stop stop-color="#AA3E37" offset="99%"/><stop stop-color="#AA3E37" offset="100%"/></linearGradient><radialGradient cx="31.998%" cy="40.215%" fx="31.998%" fy="40.215%" r="69.577%" id="n"><stop stop-color="#B13430" offset="0%"/><stop stop-color="#B13430" offset="0%"/><stop stop-color="#923934" offset="99%"/><stop stop-color="#923934" offset="100%"/></radialGradient><radialGradient cx="13.546%" cy="40.858%" fx="13.546%" fy="40.858%" r="88.39%" id="o"><stop stop-color="#AE3531" offset="0%"/><stop stop-color="#AE3531" offset="0%"/><stop stop-color="#953A36" offset="99%"/><stop stop-color="#953A36" offset="100%"/></radialGradient><linearGradient x1="56.576%" y1="101.722%" x2="3.107%" y2="11.994%" id="p"><stop stop-color="#994939" offset="0%"/><stop stop-color="#994939" offset="0%"/><stop stop-color="#AA3A36" offset="43%"/><stop stop-color="#B83936" offset="99%"/><stop stop-color="#B83936" offset="100%"/></linearGradient><linearGradient x1="30.872%" y1="35.601%" x2="92.476%" y2="100.699%" id="q"><stop stop-color="#B9392F" offset="0%"/><stop stop-color="#B9392F" offset="0%"/><stop stop-color="#A23A36" offset="44%"/><stop stop-color="#8D463A" offset="99%"/><stop stop-color="#8D463A" offset="100%"/></linearGradient></defs><g fill="none" fill-rule="evenodd"><path d="M38.743 22.825c21.397 0 38.743-5.11 38.743-11.412C77.486 5.11 60.14 0 38.743 0 17.346 0 0 5.11 0 11.413s17.346 11.412 38.743 11.412z" transform="translate(5 31)" fill-opacity=".1" filter="url(#a)" fill="#000"/><path d="M8.273 39.95l29.51-2L40.057 8.19l-8.992 18.226L8.274 39.95z" id="Shape" fill="url(#b)" transform="translate(24 7)"/><path d="M28.387 29.545l9.445 8.384-2.537-17.508-6.908 9.123z" id="Shape" fill="url(#c)" transform="translate(24 7)"/><path d="M8.372 39.913l29.494-1.984-18.582-1.46-10.912 3.443z" id="Shape" fill="url(#d)" transform="translate(24 7)"/><path d="M2.825 26.894l5.573 13.023L13.04 24.71 2.825 26.894z" id="Shape" fill="url(#e)" transform="translate(24 7)"/><path d="M11.89 24.323l16.495 5.272-4.272-16.73L11.89 24.323z" id="Shape" fill="url(#f)" transform="translate(24 7)"/><path d="M24.315 14.065l14.772-.965-11.555-9.437-3.217 10.402z" id="Shape" fill="url(#g)" transform="translate(24 7)"/><path d="M22.6.248l11.083.05-6.795 3.756L22.6.248z" id="Shape" fill="url(#h)" transform="translate(24 7)"/><path d="M.68 20.617L.138 31.995l2.847-5.192L.68 20.617z" id="Shape" fill="url(#i)" transform="translate(24 7)"/><path d="M24.528 27.422l2.317 6.572 10.068-2.258 11.494-10.683L51.65 10.75l-5.106-3.607-8.684 3.25c-2.736 2.545-8.045 7.58-8.237 7.674-.19.097-3.505 6.365-5.095 9.355z" id="Shape" fill="#FFF"/><path d="M8.664 8.615c5.93-5.88 13.573-9.352 16.507-6.393 2.932 2.96-.176 10.153-6.106 16.03-5.93 5.877-13.48 9.542-16.41 6.582-2.934-2.957.08-10.342 6.01-16.22z" id="Shape" fill="url(#j)" transform="translate(24 7)"/><path d="M8.398 39.91l4.606-15.255L28.3 29.57c-5.53 5.185-11.682 9.57-19.902 10.34z" id="Shape" fill="url(#k)" transform="translate(24 7)"/><path d="M24.427 14.023l3.927 15.554c4.62-4.857 8.767-10.08 10.798-16.54l-14.725.986z" id="Shape" fill="url(#l)" transform="translate(24 7)"/><path d="M39.11 13.116C40.684 8.374 41.047 1.57 33.636.306l-6.08 3.36 11.556 9.45z" id="Shape" fill="url(#m)" transform="translate(24 7)"/><path d="M24.137 38.927c.218 7.827 5.865 7.944 8.27 8.012L26.852 33.96l-2.713 4.965z" id="Shape" fill="#AA3E35"/><path d="M24.45 14.047C28 16.23 35.154 20.61 35.3 20.692c.225.127 3.084-4.82 3.733-7.618l-14.583.973z" id="Shape" fill="url(#n)" transform="translate(24 7)"/><path d="M12.997 24.655l6.158 11.88c3.64-1.975 6.49-4.38 9.103-6.958l-15.26-4.922z" id="Shape" fill="url(#o)" transform="translate(24 7)"/><path d="M2.827 26.978l-.873 10.39c1.646 2.247 3.91 2.442 6.287 2.267-1.718-4.277-5.15-12.83-5.413-12.657z" id="Shape" fill="url(#p)" transform="translate(24 7)"/><path d="M27.518 3.69L39.75 5.41C39.097 2.64 37.092.856 33.675.298L27.518 3.69z" fill="url(#q)" transform="translate(24 7)"/></g></svg>
